assets/icons/analytic_clicked.svg

<svg width="24" height="24" viewBox="0 0 24 24" fill="none" xmlns="http://www.w3.org/2000/svg">
<path fill-rule="evenodd" clip-rule="evenodd" d="M20.5002 6C20.6332 6.895 20.9497 11.1717 20.9497 12.3027C20.9497 19.2407 18.6377 21.5527 11.6997 21.5527C4.76271 21.5527 2.44971 19.2407 2.44971 12.3027C2.44971 5.36573 4.76271 3.05273 11.6997 3.05273C12.8097 3.05273 17.6182 3.372 18.5002 3.5" fill="#5B67CA"/>
<path d="M6.91748 14.8542L9.91048 10.9652L13.3245 13.6452L16.2535 9.86523" stroke="white" stroke-width="1.5" stroke-linecap="round" stroke-linejoin="round"/>
<path fill-rule="evenodd" clip-rule="evenodd" d="M21.5891 4.27161C21.5891 5.33261 20.7291 6.19361 19.6671 6.19361C18.6051 6.19361 17.7451 5.33261 17.7451 4.27161C17.7451 3.20961 18.6051 2.34961 19.6671 2.34961C20.7291 2.34961 21.5891 3.20961 21.5891 4.27161Z" fill="#E88B8C" stroke="#E88B8C" stroke-width="1.5" stroke-linecap="round" stroke-linejoin="round"/>
</svg>

<svg width="24" height="24" fill="none" xmlns="http://www.w3.org/2000/svg"><path fill-rule="evenodd" clip-rule="evenodd" d="M20.5 6c.133.895.45 5.172.45 6.303 0 6.938-2.312 9.25-9.25 9.25-6.937 0-9.25-2.312-9.25-9.25 0-6.937 2.313-9.25 9.25-9.25 1.11 0 5.918.319 6.8.447" fill="#5B67CA"/><path d="m6.917 14.854 2.993-3.889 3.415 2.68 2.928-3.78" stroke="#fff" stroke-width="1.5" stroke-linecap="round" stroke-linejoin="round"/><path fill-rule="evenodd" clip-rule="evenodd" d="M21.59 4.272a1.922 1.922 0 1 1-3.845 0 1.922 1.922 0 0 1 3.844 0z" fill="#E88B8C" stroke="#E88B8C" stroke-width="1.5" stroke-linecap="round" stroke-linejoin="round"/></svg>
